src/assets/img/icons/duotone-icons/Communication/Reply-all.svg

<?xml version="1.0" encoding="UTF-8"?>
<svg width="24px" height="24px" viewBox="0 0 24 24" version="1.1" xmlns="http://www.w3.org/2000/svg" xmlns:xlink="http://www.w3.org/1999/xlink">
    <!-- Generator: Sketch 52.2 (67145) - http://www.bohemiancoding.com/sketch -->
    <title>Stockholm-icons / Communication / Reply-all</title>
    <desc>Created with Sketch.</desc>
    <g id="Stockholm-icons-/-Communication-/-Reply-all" stroke="none" stroke-width="1" fill="none" fill-rule="evenodd">
        <rect id="bound" x="0" y="0" width="24" height="24"></rect>
        <path d="M8.29606274,4.13760526 L1.15599693,10.6152626 C0.849219196,10.8935795 0.826147139,11.3678924 1.10446404,11.6746702 C1.11907213,11.6907721 1.13437346,11.7062312 1.15032466,11.7210037 L8.29039047,18.333467 C8.59429669,18.6149166 9.06882135,18.596712 9.35027096,18.2928057 C9.47866909,18.1541628 9.55000007,17.9721616 9.55000007,17.7831961 L9.55000007,4.69307548 C9.55000007,4.27886191 9.21421363,3.94307548 8.80000007,3.94307548 C8.61368984,3.94307548 8.43404911,4.01242035 8.29606274,4.13760526 Z" id="Shape-Copy" fill="#335EEA" opacity="0.3"></path>
        <path d="M23.2951173,17.7910156 C23.2951173,16.9707031 23.4708985,13.7333984 20.9171876,11.1650391 C19.1984376,9.43652344 16.6261719,9.13671875 13.5500001,9 L13.5500001,4.69307548 C13.5500001,4.27886191 13.2142136,3.94307548 12.8000001,3.94307548 C12.6136898,3.94307548 12.4340491,4.01242035 12.2960627,4.13760526 L5.15599693,10.6152626 C4.8492192,10.8935795 4.82614714,11.3678924 5.10446404,11.6746702 C5.11907213,11.6907721 5.13437346,11.7062312 5.15032466,11.7210037 L12.2903905,18.333467 C12.5942967,18.6149166 13.0688214,18.596712 13.350271,18.2928057 C13.4786691,18.1541628 13.5500001,17.9721616 13.5500001,17.7831961 L13.5500001,13.5 C15.5031251,13.5537109 16.8943705,13.6779456 18.1583985,14.0800781 C19.9784273,14.6590944 21.3849749,16.3018455 22.3780412,19.0083314 L22.3780249,19.0083374 C22.4863904,19.3036749 22.7675498,19.5 23.0821406,19.5 L23.3000001,19.5 C23.3000001,19.0068359 23.2951173,18.2255859 23.2951173,17.7910156 Z" id="Shape" fill="#335EEA"></path>
    </g>
</svg>

<svg width="24" height="24" viewBox="0 0 24 24" xmlns="http://www.w3.org/2000/svg"><g fill="none" fill-rule="evenodd"><path d="M0 0h24v24H0z"/><path d="M8.296 4.138l-7.14 6.477a.75.75 0 00-.006 1.106l7.14 6.612a.75.75 0 001.26-.55V4.693a.75.75 0 00-1.254-.555z" fill="#335EEA" opacity=".3"/><path d="M23.295 17.791c0-.82.176-4.058-2.378-6.626C19.198 9.437 16.627 9.137 13.55 9V4.693a.75.75 0 00-1.254-.555l-7.14 6.477a.75.75 0 00-.006 1.106l7.14 6.612a.75.75 0 001.26-.55V13.5c1.953.054 3.344.178 4.608.58 1.82.58 3.227 2.222 4.22 4.928a.75.75 0 00.704.492h.218c0-.493-.005-1.274-.005-1.709z" fill="#335EEA"/></g></svg>
